images/mail.svg

<?xml version="1.0" encoding="utf-8"?><!-- Uploaded to: SVG Repo, www.svgrepo.com, Generator: SVG Repo Mixer Tools -->
<svg width="800px" height="800px" viewBox="0 0 24 24" fill="none" xmlns="http://www.w3.org/2000/svg">
<path fill-rule="evenodd" clip-rule="evenodd" d="M20 4C21.6569 4 23 5.34315 23 7V17C23 18.6569 21.6569 20 20 20H4C2.34315 20 1 18.6569 1 17V7C1 5.34315 2.34315 4 4 4H20ZM19.2529 6H4.74718L11.3804 11.2367C11.7437 11.5236 12.2563 11.5236 12.6197 11.2367L19.2529 6ZM3 7.1688V17C3 17.5523 3.44772 18 4 18H20C20.5523 18 21 17.5523 21 17V7.16882L13.8589 12.8065C12.769 13.667 11.231 13.667 10.1411 12.8065L3 7.1688Z" fill="#0F0F0F"/>
</svg>

<svg xmlns="http://www.w3.org/2000/svg" width="800" height="800" fill="none" viewBox="0 0 24 24"><path fill="#0F0F0F" fill-rule="evenodd" d="M20 4a3 3 0 0 1 3 3v10a3 3 0 0 1-3 3H4a3 3 0 0 1-3-3V7a3 3 0 0 1 3-3zm-.747 2H4.747l6.633 5.237a1 1 0 0 0 1.24 0zM3 7.169V17a1 1 0 0 0 1 1h16a1 1 0 0 0 1-1V7.169l-7.141 5.638a3 3 0 0 1-3.718 0z" clip-rule="evenodd"/></svg>
